packages/core/src/svgs/tokens/mono/EURS.svg

<svg width="24" height="24" viewBox="0 0 24 24" fill="none" xmlns="http://www.w3.org/2000/svg">
<path d="M19.1519 18.9893C20.9806 17.123 22.0033 14.613 22 12C22 8.80624 20.5024 5.9625 18.1719 4.13124L16.3812 4.19999C13.7418 4.50125 11.4125 6.02999 10.2518 8.2481H20.1249L18.8749 10.748H9.50562L9.49993 10.8043C9.37933 11.7668 9.39187 12.285 9.49993 13.1849L9.50751 13.2499H17.625L16.3749 15.75H10.4562C11.4843 17.2325 13.2137 18.2243 15.1825 18.5618C16.8769 18.8518 18.2718 18.9543 19.1519 18.9893ZM16.2606 21.0494C14.9281 21.6773 13.473 22.002 11.9999 21.9999C6.47685 21.9999 2 17.5231 2 12C2 6.47686 6.47685 2 11.9999 2C12.7806 2 13.5399 2.08938 14.2687 2.25875C12.7332 2.6134 11.3113 3.34751 10.133 4.39385C8.95458 5.4402 8.05747 6.76538 7.52372 8.2481H5.74997L4.49998 10.748H6.99998V10.7499C6.92435 11.76 6.93373 12.3031 6.99998 13.2499H5.74997L4.49998 15.75H7.69998C9.14804 18.6631 12.4862 20.6149 15.1825 20.9356C15.5644 20.9811 15.9237 21.0188 16.2606 21.0494Z" fill="white"/>
</svg>

<svg xmlns="http://www.w3.org/2000/svg" width="24" height="24" fill="none" viewBox="0 0 24 24">
    <path fill="#fff" d="M19.152 18.99A9.97 9.97 0 0 0 22 12a9.98 9.98 0 0 0-3.828-7.869l-1.79.069c-2.64.301-4.97 1.83-6.13 4.048h9.873l-1.25 2.5h-9.37l-.005.056c-.12.963-.108 1.481 0 2.38l.008.066h8.117l-1.25 2.5h-5.919c1.028 1.483 2.758 2.474 4.727 2.812 1.694.29 3.089.392 3.969.427m-2.891 2.06A10 10 0 0 1 12 22C6.477 22 2 17.523 2 12S6.477 2 12 2c.78 0 1.54.09 2.269.259a9.42 9.42 0 0 0-6.745 5.99H5.75L4.5 10.747H7v.002a14.7 14.7 0 0 0 0 2.5H5.75l-1.25 2.5h3.2c1.448 2.913 4.786 4.865 7.482 5.186q.573.068 1.079.113"/>
</svg>
